X:1
T:Remember David’s troubles, Lord
T:Remember David’s troubles, Lord (John Smith)
C:John Smith
Z:Text: Thomas Norton, on Ps. 132
%%score [ 1 2 3 4 ]
L:1/8
M:3/2
K:C
V:1 treble nm="Soprano" snm="S."
V:2 treble nm="Alto" snm="A."
V:3 treble-8 transpose=-12 nm="Tenor" snm="T."
V:4 bass nm="Bass" snm="B."
V:1
 A4 | (^G4 A4) B4 | (c4 d4) e4 | d8 B4 | A8 ^G4 | A8 d4 | c8 B4 | c8 c4 | (e4 d4) c4 | B8 B4 | %10
w: The|Lord _ to|Da- * vid|sware in|truth, And|will not|shrink from|it; The|fruit _ which|from thy|
w: Re-|mem- * ber|Da- * vid’s|trou- bles,|Lord, How|un- to|thee he|swore, And|vow’d _ a|vow to|
w: Till|I _ have|found _ out|for the|Lord A|place to|sit there-|on, An|house _ for|Ja- cob’s|
 (A4 B4) c4 | e8 e4 | d8 c4 | d8 B4 | A8 e4 | c8 e4 | (A4 B4) c4 | d8 c4 | B8 B4 | (c3 B A4) B4 | %20
w: loins _ pro-|ceed Up-|on thy|seat shall|sit: And|if thy|sons _ my|laws will|keep, That|I _ _ shall|
w: Ja- * cob’s|God, To|keep for|e- ver-|more: I|will not|come _ with-|in my|house, Nor|climb _ _ up|
w: God _ to|be An|ha- bi-|ta- ti-|on. A-|rise, O|Lord, _ a-|rise, I|pray, In-|to _ _ thy|
 c8 ^d4 | e8 B4 | c8 (B2 A2) | d8 (c2 B2) | e8 (d2 c2) | f8 e4 | (d4 e2 c2) (B2 A2) | (d2 c2) B8 | %28
w: learn each|one, Then|shall their _|sons for _|e- ver _|sit Up-|on _ _ thy _|prince- * ly|
w: to my|bed, Nor|let my _|tem- ples _|take their _|rest, Nor|eyes _ _ with- *|in _ my|
w: res- ting|place, Thou|and the _|ark of _|thy great _|strength, The|pre- * * sence _|of _ thy|
 A8 |] %29
w: throne.|
w: head;|
w: grace.|
V:2
 E4 | (E4 D4) D4 | (E4 F4) A4 | F8 E4 | E8 D4 | E8 F4 | (G4 A4) G4 | G8 G4 | G8 E4 | G8 F4 | %10
w: The|Lord _ to|Da- * vid|sware in|truth, And|will not|shrink _ from|it; The|fruit which|from thy|
w: Re-|mem- * ber|Da- * vid’s|trou- bles,|Lord, How|un- to|thee _ he|swore, And|vow’d a|vow to|
w: Till|I _ have|found _ out|for the|Lord A|place to|sit _ there-|on, An|house for|Ja- cob’s|
 (A4 G4) F4 | E8 E4 | (A4 G4) E4 | F8 E4 | E8 E4 | E8 E4 | F8 E4 | ^F8 A4 | ^G8 E4 | E8 ^G4 | %20
w: loins _ pro-|ceed Up-|on _ thy|seat shall|sit: And|if thy|sons my|laws will|keep, That|I shall|
w: Ja- * cob’s|God, To|keep _ for|e- ver-|more: I|will not|come with-|in my|house, Nor|climb up|
w: God _ to|be An|ha- * bi-|ta- ti-|on. A-|rise, O|Lord, a-|rise, I|pray, In-|to thy|
 A8 (^F^GAB) | ^G8 E4 | E8 (G2 A2) | G8 (G2 F2) | E8 F4 | A8 A4 | (B3 A G4) F4 | E4 E8 | E8 |] %29
w: learn each _ _ _|one, Then|shall their _|sons for _|e- ver|sit Up-|on _ _ thy|prince- ly|throne.|
w: to my _ _ _|bed, Nor|let my _|tem- ples _|take their|rest, Nor|eyes _ _ with-|in my|head;|
w: res- ting _ _ _|place, Thou|and the _|ark of _|thy great|strength, The|pre- * * sence|of thy|grace.|
V:3
 A4 | (c4 d4) B4 | (e4 d4) c4 | (B4 A4) ^G4 | A8 d4 | c8 B4 | e8 d4 | e8 e4 | (c4 d4) e4 | e8 f4 | %10
w: The|Lord _ to|Da- * vid|sware _ in|truth, And|will not|shrink from|it; The|fruit _ which|from thy|
w: Re-|mem- * ber|Da- * vid’s|trou- * bles,|Lord, How|un- to|thee he|swore, And|vow’d _ a|vow to|
w: Till|I _ have|found _ out|for _ the|Lord A|place to|sit there-|on, An|house _ for|Ja- cob’s|
 (e4 d4) c4 | B8 ^G4 | (A4 B4) c4 | B8 ^G4 | A8 A4 | e8 c4 | d8 e4 | B8 c4 | e8 e4 | (c3 d e4) e4 | %20
w: loins _ pro-|ceed Up-|on _ thy|seat shall|sit: And|if thy|sons my|laws will|keep, That|I _ _ shall|
w: Ja- * cob’s|God, To|keep _ for|e- ver-|more: I|will not|come with-|in my|house, Nor|climb _ _ up|
w: God _ to|be An|ha- * bi-|ta- ti-|on. A-|rise, O|Lord, a-|rise, I|pray, In-|to _ _ thy|
 c8 B4 | B8 ^G4 | A8 (B2 c2) | B8 (c2 d2) | c8 c4 | d8 e4 | (f4 e4) d4 | (B2 A2) ^G8 | A8 |] %29
w: learn each|one, Then|shall their _|sons for _|e- ver|sit Up-|on _ thy|prince- * ly|throne.|
w: to my|bed, Nor|let my _|tem- ples _|take their|rest, Nor|eyes _ with-|in _ my|head;|
w: res- ting|place, Thou|and the _|ark of _|thy great|strength, The|pre- * sence|of _ thy|grace.|
V:4
 A,4 | (E,4 F,4) G,4 | (C,4 B,,4) A,,4 | D,8 E,4 | A,,8 B,,4 | C,8 D,4 | (E,4 F,4) G,4 | C,8 C,4 | %8
w: The|Lord _ to|Da- * vid|sware in|truth, And|will not|shrink _ from|it; The|
w: Re-|mem- * ber|Da- * vid’s|trou- bles,|Lord, How|un- to|thee _ he|swore, And|
w: Till|I _ have|found _ out|for the|Lord A|place to|sit _ there-|on, An|
 (C4 B,4) A,4 | (G,3 F, E,4) D,4 | (C,4 B,,4) A,,4 | E,8 E,4 | (F,4 G,4) A,4 | (D,3 C, B,,4) E,4 | %14
w: fruit _ which|from _ _ thy|loins _ pro-|ceed Up-|on _ thy|seat _ _ shall|
w: vow’d _ a|vow _ _ to|Ja- * cob’s|God, To|keep _ for|e- * * ver-|
w: house _ for|Ja- * * cob’s|God _ to|be An|ha- * bi-|ta- * * ti-|
 A,,8 A,4 | A,8 E,4 | D,8 C,4 | B,,8 A,,4 | E,8 E,4 | (E,3 D, C,4) E,4 | A,8 B,4 | E,8 E,4 | %22
w: sit: And|if thy|sons my|laws will|keep, That|I _ _ shall|learn each|one, Then|
w: more: I|will not|come with-|in my|house, Nor|climb _ _ up|to my|bed, Nor|
w: on. A-|rise, O|Lord, a-|rise, I|pray, In-|to _ _ thy|res- ting|place, Thou|
"^Notes: The alto part is printed in the source in the treble clef an octave above sounding pitch.The only indication of the text given in the source is the title 'Psalm ye 132d'. Whilst the book specifies the psalm to beused for each tune, only one tune additionally specifies the version (Ps. 14 N.V.), implying that the Old Version should beused for all the other tunes.An editorial selection of verses from Ps. 132 O.V., by Thomas Norton, has been added." A,8 (G,2 ^F,2) | %23
w: shall their _|
w: let my _|
w: and the _|
 G,8 (A,2 B,2) | C8 (B,2 A,2) | D,8 C,4 | (B,,4 C,4) D,4 | E,4 E,8 | A,,8 |] %29
w: sons for _|e- ver _|sit Up-|on _ thy|prince- ly|throne.|
w: tem- ples _|take their _|rest, Nor|eyes _ with-|in my|head;|
w: ark of _|thy great _|strength, The|pre- * sence|of thy|grace.|

